Newaita-dark/apps/22/com.github.lainsce.yishu.svg

<svg height="22pt" viewBox="0 0 22 22" width="22pt" xmlns="http://www.w3.org/2000/svg" xmlns:xlink="http://www.w3.org/1999/xlink"><linearGradient id="a" gradientUnits="userSpaceOnUse" x1="10.9151146" x2="10.9151146" y1="19.27333615" y2="20.18292934324"><stop offset="0" stop-opacity=".27451"/><stop offset="1" stop-opacity="0"/></linearGradient><linearGradient id="b"><stop offset="0" stop-opacity=".313725"/><stop offset=".222222" stop-opacity=".27451"/><stop offset="1" stop-opacity="0"/></linearGradient><radialGradient id="c" cx="450.90894" cy="189.57936" gradientTransform="matrix(.00000012 -.0537161 -.0966889 -.00000007 35.83982 43.721792)" gradientUnits="userSpaceOnUse" r="21.166656" xlink:href="#b"/><radialGradient id="d" cx="450.90894" cy="189.57936" gradientTransform="matrix(-.00000012 .0537161 .0966889 .00000007 -14.00961 -5.175142)" gradientUnits="userSpaceOnUse" r="21.166656" xlink:href="#b"/><radialGradient id="e" cx="450.90894" cy="189.57936" gradientTransform="matrix(-.00000012 -.0537161 .0966889 -.00000007 -14.00961 43.721792)" gradientUnits="userSpaceOnUse" r="21.166656" xlink:href="#b"/><radialGradient id="f" cx="450.90894" cy="189.57936" gradientTransform="matrix(.00000012 .0537161 -.0966889 .00000007 35.839819 -5.175142)" gradientUnits="userSpaceOnUse" r="21.166656" xlink:href="#b"/><linearGradient id="g" gradientUnits="userSpaceOnUse" x1="7.27674425676" x2="7.27674425676" y1="19.27333515" y2="1.99106748649"><stop offset="0" stop-color="#9ccc65"/><stop offset="1" stop-color="#aed581"/></linearGradient><linearGradient id="h" gradientUnits="userSpaceOnUse" x1="10.9151166" x2="10.9151166" y1="19.27333515" y2="1.99106705676"><stop offset="0" stop-color="#bdbdbd"/><stop offset="1" stop-color="#e0e0e0"/></linearGradient><path d="m4.09375 19.207031h13.644531v1.007813h-13.644531zm0 0" fill="url(#a)"/><path d="m17.738281 19.273438h1.816407v-.910157h-1.816407zm0 0" fill="url(#c)"/><path d="m4.09375 19.273438h-1.820312v.910156h1.820312zm0 0" fill="url(#d)"/><path d="m4.09375 19.273438h-1.820312v-.910157h1.820312zm0 0" fill="url(#e)"/><path d="m17.738281 19.273438h1.816407v.910156h-1.816407zm0 0" fill="url(#f)"/><path d="m3.183594 1.992188h15.464844c.5 0 .90625.40625.90625.910156v15.460937c0 .503907-.40625.910157-.90625.910157h-15.464844c-.503906 0-.910156-.40625-.910156-.910157v-15.460937c0-.503906.40625-.910156.910156-.910156zm0 0" fill="url(#g)"/><path d="m3.183594 1.992188c-.503906 0-.910156.40625-.910156.910156v.113281c0-.503906.40625-.910156.910156-.910156h15.464844c.503906 0 .90625.40625.90625.910156v-.113281c0-.503906-.402344-.910156-.90625-.910156zm0 0" fill="#e6e6e6" fill-opacity=".392157"/><path d="m3.183594 19.273438c-.503906 0-.910156-.40625-.910156-.910157v-.113281c0 .503906.40625.910156.910156.910156h15.464844c.503906 0 .90625-.40625.90625-.910156v.113281c0 .503907-.402344.910157-.90625.910157zm0 0" fill-opacity=".196078"/><path d="m74.083834-168.640791h359.874725c11.635253 0 21.088895 9.453643 21.088895 21.179796v359.783824c0 11.726153-9.453642 21.179796-21.088895 21.179796h-359.874725c-11.726152 0-21.179795-9.453643-21.179795-21.179796v-359.783824c0-11.726153 9.453643-21.179796 21.179795-21.179796zm0 0" fill="none" stroke="#212121" stroke-linecap="round" stroke-width="3" transform="matrix(.0429729 0 0 .0429729 0 9.239163)"/><path d="m16.355469 5.625c-.296875.007812-.574219.160156-.734375.410156l-4.878906 7.316406-3.769532-3.390624c-.238281-.222657-.578125-.296876-.890625-.199219-.308593.101562-.542969.359375-.609375.679687-.066406.316406.042969.648438.289063.863282l4.546875 4.09375c.195312.175781.457031.257812.71875.226562.261718-.035156.496094-.179688.640625-.398438l5.457031-8.183593c.195312-.28125.214844-.648438.050781-.945313-.164062-.300781-.480469-.484375-.820312-.472656zm0 0" fill="url(#h)"/><path d="m16.355469 5.625c-.296875.007812-.574219.160156-.734375.410156l-4.878906 7.316406-3.769532-3.390624c-.289062-.265626-.714844-.316407-1.054687-.125-.34375.191406-.523438.578124-.445313.964843.0625-.324219.292969-.585937.605469-.6875.3125-.101562.652344-.027343.894531.191407l3.769532 3.394531 4.878906-7.316407c.160156-.25.4375-.402343.734375-.414062.441406-.011719.828125.300781.914062.734375.050781-.269531-.023437-.550781-.199219-.761719-.175781-.207031-.441406-.324218-.714843-.316406zm0 0" fill="#fff"/><path d="m17.21875 6.878906c-.023438.058594-.054688.117188-.09375.171875l-5.457031 8.1875c-.144531.214844-.378907.359375-.640625.394531-.261719.03125-.523438-.050781-.71875-.226562l-4.546875-4.09375c-.105469-.089844-.1875-.207031-.242188-.335938-.144531.355469-.046875.765626.242188 1.019532l4.546875 4.09375c.195312.175781.457031.257812.71875.226562.261718-.035156.496094-.179687.640625-.398437l5.457031-8.1875c.171875-.25.207031-.570313.09375-.851563zm0 0" fill-opacity=".235294"/><path d="m380.600018-84.103409c-6.908431.181801-13.36236 3.726917-17.089277 9.544543l-113.534613 170.256469-87.718896-78.901557c-5.544925-5.181323-13.45326-6.908431-20.725293-4.635921-7.181132 2.363411-12.635157 8.362838-14.180464 15.816672-1.545307 7.362933.999904 15.089468 6.72663 20.088991l105.808078 95.26363c4.54502 4.090518 10.635348 5.999427 16.725675 5.272223 6.090328-.818103 11.544353-4.181418 14.907668-9.271841l126.987873-190.43636c4.545021-6.54483 4.999523-15.089468 1.181705-21.997899-3.817817-6.999332-11.18075-11.271651-19.089086-10.99895zm0 0" fill="none" stroke="#212121" stroke-linecap="round" stroke-linejoin="round" stroke-width="3" transform="matrix(.0429729 0 0 .0429729 0 9.239163)"/></svg>

<?xml version="1.0" encoding="UTF-8"?>
<svg xmlns="http://www.w3.org/2000/svg" xmlns:xlink="http://www.w3.org/1999/xlink" width="22pt" height="22pt" viewBox="0 0 22 22" version="1.1">
<defs>
<linearGradient id="linear0" gradientUnits="userSpaceOnUse" x1="254" y1="233.5" x2="254" y2="254.66667" gradientTransform="matrix(0.0429729,0,0,0.0429729,-0.00000171891,9.239164)">
<stop offset="0" style="stop-color:rgb(0%,0%,0%);stop-opacity:0.27451;"/>
<stop offset="1" style="stop-color:rgb(0%,0%,0%);stop-opacity:0;"/>
</linearGradient>
<radialGradient id="radial0" gradientUnits="userSpaceOnUse" cx="450.90894" cy="189.57936" fx="450.90894" fy="189.57936" r="21.166656" gradientTransform="matrix(0.000000119742,-0.0537161,-0.0966889,-0.0000000698078,35.83982,43.721792)">
<stop offset="0" style="stop-color:rgb(0%,0%,0%);stop-opacity:0.313725;"/>
<stop offset="0.222222" style="stop-color:rgb(0%,0%,0%);stop-opacity:0.27451;"/>
<stop offset="1" style="stop-color:rgb(0%,0%,0%);stop-opacity:0;"/>
</radialGradient>
<radialGradient id="radial1" gradientUnits="userSpaceOnUse" cx="450.90894" cy="189.57936" fx="450.90894" fy="189.57936" r="21.166656" gradientTransform="matrix(-0.000000119742,0.0537161,0.0966889,0.0000000698078,-14.00961,-5.175142)">
<stop offset="0" style="stop-color:rgb(0%,0%,0%);stop-opacity:0.313725;"/>
<stop offset="0.222222" style="stop-color:rgb(0%,0%,0%);stop-opacity:0.27451;"/>
<stop offset="1" style="stop-color:rgb(0%,0%,0%);stop-opacity:0;"/>
</radialGradient>
<radialGradient id="radial2" gradientUnits="userSpaceOnUse" cx="450.90894" cy="189.57936" fx="450.90894" fy="189.57936" r="21.166656" gradientTransform="matrix(-0.000000119742,-0.0537161,0.0966889,-0.0000000698078,-14.00961,43.721792)">
<stop offset="0" style="stop-color:rgb(0%,0%,0%);stop-opacity:0.313725;"/>
<stop offset="0.222222" style="stop-color:rgb(0%,0%,0%);stop-opacity:0.27451;"/>
<stop offset="1" style="stop-color:rgb(0%,0%,0%);stop-opacity:0;"/>
</radialGradient>
<radialGradient id="radial3" gradientUnits="userSpaceOnUse" cx="450.90894" cy="189.57936" fx="450.90894" fy="189.57936" r="21.166656" gradientTransform="matrix(0.000000119742,0.0537161,-0.0966889,0.0000000698078,35.839819,-5.175142)">
<stop offset="0" style="stop-color:rgb(0%,0%,0%);stop-opacity:0.313725;"/>
<stop offset="0.222222" style="stop-color:rgb(0%,0%,0%);stop-opacity:0.27451;"/>
<stop offset="1" style="stop-color:rgb(0%,0%,0%);stop-opacity:0;"/>
</radialGradient>
<linearGradient id="linear1" gradientUnits="userSpaceOnUse" x1="169.33333" y1="233.5" x2="169.33333" y2="-168.66666" gradientTransform="matrix(0.0429729,0,0,0.0429729,0,9.239163)">
<stop offset="0" style="stop-color:rgb(61.176471%,80%,39.607843%);stop-opacity:1;"/>
<stop offset="1" style="stop-color:rgb(68.235294%,83.529412%,50.588235%);stop-opacity:1;"/>
</linearGradient>
<linearGradient id="linear2" gradientUnits="userSpaceOnUse" x1="254" y1="233.5" x2="254" y2="-168.66667" gradientTransform="matrix(0.0429729,0,0,0.0429729,0,9.239163)">
<stop offset="0" style="stop-color:rgb(74.117647%,74.117647%,74.117647%);stop-opacity:1;"/>
<stop offset="1" style="stop-color:rgb(87.843137%,87.843137%,87.843137%);stop-opacity:1;"/>
</linearGradient>
</defs>
<g id="surface1">
<path style=" stroke:none;fill-rule:nonzero;fill:url(#linear0);" d="M 4.09375 19.207031 L 17.738281 19.207031 L 17.738281 20.214844 L 4.09375 20.214844 Z M 4.09375 19.207031 "/>
<path style=" stroke:none;fill-rule:nonzero;fill:url(#radial0);" d="M 17.738281 19.273438 L 19.554688 19.273438 L 19.554688 18.363281 L 17.738281 18.363281 Z M 17.738281 19.273438 "/>
<path style=" stroke:none;fill-rule:nonzero;fill:url(#radial1);" d="M 4.09375 19.273438 L 2.273438 19.273438 L 2.273438 20.183594 L 4.09375 20.183594 Z M 4.09375 19.273438 "/>
<path style=" stroke:none;fill-rule:nonzero;fill:url(#radial2);" d="M 4.09375 19.273438 L 2.273438 19.273438 L 2.273438 18.363281 L 4.09375 18.363281 Z M 4.09375 19.273438 "/>
<path style=" stroke:none;fill-rule:nonzero;fill:url(#radial3);" d="M 17.738281 19.273438 L 19.554688 19.273438 L 19.554688 20.183594 L 17.738281 20.183594 Z M 17.738281 19.273438 "/>
<path style=" stroke:none;fill-rule:nonzero;fill:url(#linear1);" d="M 3.183594 1.992188 L 18.648438 1.992188 C 19.148438 1.992188 19.554688 2.398438 19.554688 2.902344 L 19.554688 18.363281 C 19.554688 18.867188 19.148438 19.273438 18.648438 19.273438 L 3.183594 19.273438 C 2.679688 19.273438 2.273438 18.867188 2.273438 18.363281 L 2.273438 2.902344 C 2.273438 2.398438 2.679688 1.992188 3.183594 1.992188 Z M 3.183594 1.992188 "/>
<path style=" stroke:none;fill-rule:nonzero;fill:rgb(90.196078%,90.196078%,90.196078%);fill-opacity:0.392157;" d="M 3.183594 1.992188 C 2.679688 1.992188 2.273438 2.398438 2.273438 2.902344 L 2.273438 3.015625 C 2.273438 2.511719 2.679688 2.105469 3.183594 2.105469 L 18.648438 2.105469 C 19.152344 2.105469 19.554688 2.511719 19.554688 3.015625 L 19.554688 2.902344 C 19.554688 2.398438 19.152344 1.992188 18.648438 1.992188 Z M 3.183594 1.992188 "/>
<path style=" stroke:none;fill-rule:nonzero;fill:rgb(0%,0%,0%);fill-opacity:0.196078;" d="M 3.183594 19.273438 C 2.679688 19.273438 2.273438 18.867188 2.273438 18.363281 L 2.273438 18.25 C 2.273438 18.753906 2.679688 19.160156 3.183594 19.160156 L 18.648438 19.160156 C 19.152344 19.160156 19.554688 18.753906 19.554688 18.25 L 19.554688 18.363281 C 19.554688 18.867188 19.152344 19.273438 18.648438 19.273438 Z M 3.183594 19.273438 "/>
<path style="fill:none;stroke-width:3;stroke-linecap:round;stroke-linejoin:miter;stroke:rgb(12.941176%,12.941176%,12.941176%);stroke-opacity:1;stroke-miterlimit:4;" d="M 74.083834 -168.640791 L 433.958559 -168.640791 C 445.593812 -168.640791 455.047454 -159.187148 455.047454 -147.460995 L 455.047454 212.322829 C 455.047454 224.048982 445.593812 233.502625 433.958559 233.502625 L 74.083834 233.502625 C 62.357682 233.502625 52.904039 224.048982 52.904039 212.322829 L 52.904039 -147.460995 C 52.904039 -159.187148 62.357682 -168.640791 74.083834 -168.640791 Z M 74.083834 -168.640791 " transform="matrix(0.0429729,0,0,0.0429729,0,9.239163)"/>
<path style=" stroke:none;fill-rule:nonzero;fill:url(#linear2);" d="M 16.355469 5.625 C 16.058594 5.632812 15.78125 5.785156 15.621094 6.035156 L 10.742188 13.351562 L 6.972656 9.960938 C 6.734375 9.738281 6.394531 9.664062 6.082031 9.761719 C 5.773438 9.863281 5.539062 10.121094 5.472656 10.441406 C 5.40625 10.757812 5.515625 11.089844 5.761719 11.304688 L 10.308594 15.398438 C 10.503906 15.574219 10.765625 15.65625 11.027344 15.625 C 11.289062 15.589844 11.523438 15.445312 11.667969 15.226562 L 17.125 7.042969 C 17.320312 6.761719 17.339844 6.394531 17.175781 6.097656 C 17.011719 5.796875 16.695312 5.613281 16.355469 5.625 Z M 16.355469 5.625 "/>
<path style=" stroke:none;fill-rule:nonzero;fill:rgb(100%,100%,100%);fill-opacity:1;" d="M 16.355469 5.625 C 16.058594 5.632812 15.78125 5.785156 15.621094 6.035156 L 10.742188 13.351562 L 6.972656 9.960938 C 6.683594 9.695312 6.257812 9.644531 5.917969 9.835938 C 5.574219 10.027344 5.394531 10.414062 5.472656 10.800781 C 5.535156 10.476562 5.765625 10.214844 6.078125 10.113281 C 6.390625 10.011719 6.730469 10.085938 6.972656 10.304688 L 10.742188 13.699219 L 15.621094 6.382812 C 15.78125 6.132812 16.058594 5.980469 16.355469 5.96875 C 16.796875 5.957031 17.183594 6.269531 17.269531 6.703125 C 17.320312 6.433594 17.246094 6.152344 17.070312 5.941406 C 16.894531 5.734375 16.628906 5.617188 16.355469 5.625 Z M 16.355469 5.625 "/>
<path style=" stroke:none;fill-rule:nonzero;fill:rgb(0%,0%,0%);fill-opacity:0.235294;" d="M 17.21875 6.878906 C 17.195312 6.9375 17.164062 6.996094 17.125 7.050781 L 11.667969 15.238281 C 11.523438 15.453125 11.289062 15.597656 11.027344 15.632812 C 10.765625 15.664062 10.503906 15.582031 10.308594 15.40625 L 5.761719 11.3125 C 5.65625 11.222656 5.574219 11.105469 5.519531 10.976562 C 5.375 11.332031 5.472656 11.742188 5.761719 11.996094 L 10.308594 16.089844 C 10.503906 16.265625 10.765625 16.347656 11.027344 16.316406 C 11.289062 16.28125 11.523438 16.136719 11.667969 15.917969 L 17.125 7.730469 C 17.296875 7.480469 17.332031 7.160156 17.21875 6.878906 Z M 17.21875 6.878906 "/>
<path style="fill:none;stroke-width:3;stroke-linecap:round;stroke-linejoin:round;stroke:rgb(12.941176%,12.941176%,12.941176%);stroke-opacity:1;stroke-miterlimit:4;" d="M 380.600018 -84.103409 C 373.691587 -83.921608 367.237658 -80.376492 363.510741 -74.558866 L 249.976128 95.697603 L 162.257232 16.796046 C 156.712307 11.614723 148.803972 9.887615 141.531939 12.160125 C 134.350807 14.523536 128.896782 20.522963 127.351475 27.976797 C 125.806168 35.33973 128.351379 43.066265 134.078105 48.065788 L 239.886183 143.329418 C 244.431203 147.419936 250.521531 149.328845 256.611858 148.601641 C 262.702186 147.783538 268.156211 144.420223 271.519526 139.3298 L 398.507399 -51.10656 C 403.05242 -57.65139 403.506922 -66.196028 399.689104 -73.104459 C 395.871287 -80.103791 388.508354 -84.37611 380.600018 -84.103409 Z M 380.600018 -84.103409 " transform="matrix(0.0429729,0,0,0.0429729,0,9.239163)"/>
</g>
</svg>
